T: Jackson's Coagy
M: 6/8
L: 1/8
K: Ador
EAA ABc|BAG c2A|BGE EDE|GED D2G|EAA ABc|
BAG ABd|ede gdB|ABA A2G:||:eaa aga|bab c'2a|
bge ede|ged d2g|eaa aga|bag a2g|ede gdB|ABA A2G:||
